static/img/kroki/68682e7b62dde3c444330c9bf715e33a.svg

<?xml version="1.0" encoding="us-ascii" standalone="no"?><svg xmlns="http://www.w3.org/2000/svg" xmlns:xlink="http://www.w3.org/1999/xlink" contentStyleType="text/css" height="846px" preserveAspectRatio="none" style="width:461px;height:846px;" version="1.1" viewBox="0 0 461 846" width="461px" zoomAndPan="magnify"><defs/><g><!--class azure_storage_account_deleted--><g id="elem_azure_storage_account_deleted"><rect codeLine="23" fill="#3D176E" height="179.2734" id="azure_storage_account_deleted" rx="2.5" ry="2.5" style="stroke:#000D19;stroke-width:0.5;" width="304" x="82" y="660.14"/><ellipse cx="97" cy="680.0345" fill="#ADD1B2" rx="11" ry="11" style="stroke:#181818;stroke-width:1.0;"/><path d="M99.9688,685.6752 Q99.3906,685.972 98.75,686.1127 Q98.1094,686.2689 97.4063,686.2689 Q94.9063,686.2689 93.5781,684.6283 Q92.2656,682.972 92.2656,679.847 Q92.2656,676.722 93.5781,675.0658 Q94.9063,673.4095 97.4063,673.4095 Q98.1094,673.4095 98.75,673.5658 Q99.4063,673.722 99.9688,674.0189 L99.9688,676.7377 Q99.3438,676.1595 98.75,675.8939 Q98.1563,675.6127 97.5313,675.6127 Q96.1875,675.6127 95.5,676.6908 Q94.8125,677.7533 94.8125,679.847 Q94.8125,681.9408 95.5,683.0189 Q96.1875,684.0814 97.5313,684.0814 Q98.1563,684.0814 98.75,683.8158 Q99.3438,683.5345 99.9688,682.9564 L99.9688,685.6752 Z " fill="#000000"/><text fill="#D9B8FF" font-family="Helvetica" font-size="17" lengthAdjust="spacing" textLength="262" x="116" y="685.9198">azure_storage_account_deleted</text><line style="stroke:#000D19;stroke-width:0.5;" x1="83" x2="385" y1="699.9291" y2="699.9291"/><text fill="#D9B8FF" font-family="sans-serif" font-size="14" font-weight="bold" lengthAdjust="spacing" textLength="106" x="93" y="721.9242">creation_time</text><text fill="#D9B8FF" font-family="sans-serif" font-size="14" lengthAdjust="spacing" textLength="70" x="199" y="721.9242">: datetime</text><text fill="#D9B8FF" font-family="sans-serif" font-size="14" font-weight="bold" lengthAdjust="spacing" textLength="105" x="93" y="748.2211">deletion_time</text><text fill="#D9B8FF" font-family="sans-serif" font-size="14" lengthAdjust="spacing" textLength="70" x="198" y="748.2211">: datetime</text><text fill="#D9B8FF" font-family="sans-serif" font-size="14" font-weight="bold" lengthAdjust="spacing" textLength="145" x="93" y="774.5179">restore_reference</text><text fill="#D9B8FF" font-family="sans-serif" font-size="14" lengthAdjust="spacing" textLength="48" x="238" y="774.5179">: string</text><text fill="#D9B8FF" font-family="sans-serif" font-size="14" font-weight="bold" lengthAdjust="spacing" textLength="231" x="93" y="800.8148">storage_account_resource_id</text><text fill="#D9B8FF" font-family="sans-serif" font-size="14" lengthAdjust="spacing" textLength="48" x="324" y="800.8148">: string</text><text fill="#D9B8FF" font-family="sans-serif" font-size="14" font-weight="bold" lengthAdjust="spacing" textLength="35" x="93" y="827.1117">type</text><text fill="#D9B8FF" font-family="sans-serif" font-size="14" lengthAdjust="spacing" textLength="48" x="128" y="827.1117">: string</text></g><!--class microsoft_resource--><g id="elem_microsoft_resource"><rect codeLine="30" fill="#3D176E" height="100.3828" id="microsoft_resource" rx="2.5" ry="2.5" style="stroke:#000D19;stroke-width:0.5;" width="214" x="7" y="438.75"/><ellipse cx="28.3" cy="458.6445" fill="#ADD1B2" rx="11" ry="11" style="stroke:#181818;stroke-width:1.0;"/><path d="M31.2688,464.2852 Q30.6906,464.582 30.05,464.7227 Q29.4094,464.8789 28.7063,464.8789 Q26.2063,464.8789 24.8781,463.2383 Q23.5656,461.582 23.5656,458.457 Q23.5656,455.332 24.8781,453.6758 Q26.2063,452.0195 28.7063,452.0195 Q29.4094,452.0195 30.05,452.1758 Q30.7063,452.332 31.2688,452.6289 L31.2688,455.3477 Q30.6438,454.7695 30.05,454.5039 Q29.4563,454.2227 28.8313,454.2227 Q27.4875,454.2227 26.8,455.3008 Q26.1125,456.3633 26.1125,458.457 Q26.1125,460.5508 26.8,461.6289 Q27.4875,462.6914 28.8313,462.6914 Q29.4563,462.6914 30.05,462.4258 Q30.6438,462.1445 31.2688,461.5664 L31.2688,464.2852 Z " fill="#000000"/><text fill="#D9B8FF" font-family="Helvetica" font-size="17" lengthAdjust="spacing" textLength="158" x="48.7" y="464.5298">microsoft_resource</text><line style="stroke:#000D19;stroke-width:0.5;" x1="8" x2="220" y1="478.5391" y2="478.5391"/><text fill="#D9B8FF" font-family="sans-serif" font-size="14" font-weight="bold" lengthAdjust="spacing" textLength="35" x="18" y="500.5342">etag</text><text fill="#D9B8FF" font-family="sans-serif" font-size="14" lengthAdjust="spacing" textLength="48" x="53" y="500.5342">: string</text><text fill="#D9B8FF" font-family="sans-serif" font-size="14" font-weight="bold" lengthAdjust="spacing" textLength="144" x="18" y="526.8311">provisioning_state</text><text fill="#D9B8FF" font-family="sans-serif" font-size="14" lengthAdjust="spacing" textLength="48" x="162" y="526.8311">: string</text></g><!--class phantom_resource--><g id="elem_phantom_resource"><rect codeLine="34" fill="#3D176E" height="39.7891" id="phantom_resource" rx="2.5" ry="2.5" style="stroke:#000D19;stroke-width:0.5;" width="198" x="256" y="469.05"/><ellipse cx="271" cy="488.9445" fill="#ADD1B2" rx="11" ry="11" style="stroke:#181818;stroke-width:1.0;"/><path d="M273.9688,494.5852 Q273.3906,494.882 272.75,495.0227 Q272.1094,495.1789 271.4063,495.1789 Q268.9063,495.1789 267.5781,493.5383 Q266.2656,491.882 266.2656,488.757 Q266.2656,485.632 267.5781,483.9758 Q268.9063,482.3195 271.4063,482.3195 Q272.1094,482.3195 272.75,482.4758 Q273.4063,482.632 273.9688,482.9289 L273.9688,485.6477 Q273.3438,485.0695 272.75,484.8039 Q272.1563,484.5227 271.5313,484.5227 Q270.1875,484.5227 269.5,485.6008 Q268.8125,486.6633 268.8125,488.757 Q268.8125,490.8508 269.5,491.9289 Q270.1875,492.9914 271.5313,492.9914 Q272.1563,492.9914 272.75,492.7258 Q273.3438,492.4445 273.9688,491.8664 L273.9688,494.5852 Z " fill="#000000"/><text fill="#D9B8FF" font-family="Helvetica" font-size="17" lengthAdjust="spacing" textLength="156" x="290" y="494.8298">phantom_resource</text></g><!--class resource--><g id="elem_resource"><rect codeLine="37" fill="#3D176E" height="310.7578" id="resource" rx="2.5" ry="2.5" style="stroke:#000D19;stroke-width:0.5;" width="227" x="120.5" y="7"/><ellipse cx="189.25" cy="26.8945" fill="#ADD1B2" rx="11" ry="11" style="stroke:#181818;stroke-width:1.0;"/><path d="M192.2188,32.5352 Q191.6406,32.832 191,32.9727 Q190.3594,33.1289 189.6563,33.1289 Q187.1563,33.1289 185.8281,31.4883 Q184.5156,29.832 184.5156,26.707 Q184.5156,23.582 185.8281,21.9258 Q187.1563,20.2695 189.6563,20.2695 Q190.3594,20.2695 191,20.4258 Q191.6563,20.582 192.2188,20.8789 L192.2188,23.5977 Q191.5938,23.0195 191,22.7539 Q190.4063,22.4727 189.7813,22.4727 Q188.4375,22.4727 187.75,23.5508 Q187.0625,24.6133 187.0625,26.707 Q187.0625,28.8008 187.75,29.8789 Q188.4375,30.9414 189.7813,30.9414 Q190.4063,30.9414 191,30.6758 Q191.5938,30.3945 192.2188,29.8164 L192.2188,32.5352 Z " fill="#000000"/><text fill="#D9B8FF" font-family="Helvetica" font-size="17" lengthAdjust="spacing" textLength="71" x="214.75" y="32.7798">resource</text><line style="stroke:#000D19;stroke-width:0.5;" x1="121.5" x2="346.5" y1="46.7891" y2="46.7891"/><text fill="#D9B8FF" font-family="sans-serif" font-size="14" font-weight="bold" lengthAdjust="spacing" textLength="29" x="131.5" y="68.7842">age</text><text fill="#D9B8FF" font-family="sans-serif" font-size="14" lengthAdjust="spacing" textLength="66" x="160.5" y="68.7842">: duration</text><text fill="#D9B8FF" font-family="sans-serif" font-size="14" font-weight="bold" lengthAdjust="spacing" textLength="43" x="131.5" y="95.0811">atime</text><text fill="#D9B8FF" font-family="sans-serif" font-size="14" lengthAdjust="spacing" textLength="70" x="174.5" y="95.0811">: datetime</text><text fill="#D9B8FF" font-family="sans-serif" font-size="14" font-weight="bold" lengthAdjust="spacing" textLength="43" x="131.5" y="121.3779">ctime</text><text fill="#D9B8FF" font-family="sans-serif" font-size="14" lengthAdjust="spacing" textLength="70" x="174.5" y="121.3779">: datetime</text><text fill="#D9B8FF" font-family="sans-serif" font-size="14" font-weight="bold" lengthAdjust="spacing" textLength="14" x="131.5" y="147.6748">id</text><text fill="#D9B8FF" font-family="sans-serif" font-size="14" lengthAdjust="spacing" textLength="48" x="145.5" y="147.6748">: string</text><text fill="#D9B8FF" font-family="sans-serif" font-size="14" font-weight="bold" lengthAdjust="spacing" textLength="33" x="131.5" y="173.9717">kind</text><text fill="#D9B8FF" font-family="sans-serif" font-size="14" lengthAdjust="spacing" textLength="48" x="164.5" y="173.9717">: string</text><text fill="#D9B8FF" font-family="sans-serif" font-size="14" font-weight="bold" lengthAdjust="spacing" textLength="90" x="131.5" y="200.2686">last_access</text><text fill="#D9B8FF" font-family="sans-serif" font-size="14" lengthAdjust="spacing" textLength="66" x="221.5" y="200.2686">: duration</text><text fill="#D9B8FF" font-family="sans-serif" font-size="14" font-weight="bold" lengthAdjust="spacing" textLength="90" x="131.5" y="226.5654">last_update</text><text fill="#D9B8FF" font-family="sans-serif" font-size="14" lengthAdjust="spacing" textLength="66" x="221.5" y="226.5654">: duration</text><text fill="#D9B8FF" font-family="sans-serif" font-size="14" font-weight="bold" lengthAdjust="spacing" textLength="48" x="131.5" y="252.8623">mtime</text><text fill="#D9B8FF" font-family="sans-serif" font-size="14" lengthAdjust="spacing" textLength="70" x="179.5" y="252.8623">: datetime</text><text fill="#D9B8FF" font-family="sans-serif" font-size="14" font-weight="bold" lengthAdjust="spacing" textLength="43" x="131.5" y="279.1592">name</text><text fill="#D9B8FF" font-family="sans-serif" font-size="14" lengthAdjust="spacing" textLength="48" x="174.5" y="279.1592">: string</text><text fill="#D9B8FF" font-family="sans-serif" font-size="14" font-weight="bold" lengthAdjust="spacing" textLength="34" x="131.5" y="305.4561">tags</text><text fill="#D9B8FF" font-family="sans-serif" font-size="14" lengthAdjust="spacing" textLength="171" x="165.5" y="305.4561">: dictionary[string, string]</text></g><!--reverse link microsoft_resource to azure_storage_account_deleted--><g id="link_microsoft_resource_azure_storage_account_deleted"><path codeLine="49" d="M144.5696,555.871 C160.3196,589.851 174.09,619.55 192.74,659.78 " fill="none" id="microsoft_resource-backto-azure_storage_account_deleted" style="stroke:#FFAF37;stroke-width:2.0;"/><polygon fill="none" points="137,539.54,139.1259,558.3942,150.0132,553.3478,137,539.54" style="stroke:#FFAF37;stroke-width:2.0;"/></g><!--reverse link phantom_resource to azure_storage_account_deleted--><g id="link_phantom_resource_azure_storage_account_deleted"><path codeLine="50" d="M338.4793,525.2872 C323.7493,556.8072 301,605.46 275.58,659.83 " fill="none" id="phantom_resource-backto-azure_storage_account_deleted" style="stroke:#FFAF37;stroke-width:2.0;"/><polygon fill="none" points="346.1,508.98,333.0436,522.747,343.915,527.8274,346.1,508.98" style="stroke:#FFAF37;stroke-width:2.0;"/></g><!--reverse link resource to microsoft_resource--><g id="link_resource_microsoft_resource"><path codeLine="51" d="M170.5667,334.9426 C154.4467,378.5326 144.31,405.98 132.31,438.42 " fill="none" id="resource-backto-microsoft_resource" style="stroke:#FFAF37;stroke-width:2.0;"/><polygon fill="none" points="176.81,318.06,164.9391,332.8614,176.1942,337.0237,176.81,318.06" style="stroke:#FFAF37;stroke-width:2.0;"/></g><!--reverse link resource to phantom_resource--><g id="link_resource_phantom_resource"><path codeLine="52" d="M297.949,334.9256 C320.229,394.6756 336.73,438.95 347.92,468.96 " fill="none" id="resource-backto-phantom_resource" style="stroke:#FFAF37;stroke-width:2.0;"/><polygon fill="none" points="291.66,318.06,292.3271,337.0219,303.5708,332.8293,291.66,318.06" style="stroke:#FFAF37;stroke-width:2.0;"/></g><!--SRC=[ZPD1ZzCm48Nl-HMMzbPHgMK5tI8kIoK4bnLYkI4KJUrnQZMse_5aLrtWl-EaPN6SjCijcVTvtfk9ipCA1Tg63yAYtIA58koDQu30YbiY_xZnjITnfJNewrKkVlIENmJkmABuXFK3if6G4zzsHkuTXY1U9z87aFkAVElKiJqJk10bT9nGcnf2k6KcisqPap1glRtHEYVpfbVNQhbwYoFCaq8w8Ol5GYtNEVAYrSMvdubxyuHYcIxjpZEEOeuiUkfYoev8Geu6_QkVpVW5b3Ak4c-IsjTZ9d98W_hz3fH_x6WDTKXj0YEXvqE3cz5KkBvHUZK9Vpu75x9RdO2dbh0Cx0agB47AI7Afi4P69NuMivaa13RUbMmipcRlX0B6xZbgFNT68-owOaceOnWdUpt42-QggEQEaVOjIIoD6d3T34dXzocsDP9yyFhVmJuhCbI3umtv1nDYmlWQfupf9ferEt3iRThgMHkqZu7x8LlgDz9L9WQN4xLiglYXXeNenTqkui-REVHAswXJz4In4puEx73FSI77ZaPsnu0Etu_QgnFp8uuwiSttl-Rp-UNRKOpszZ-7CdXidHEvI_47]--></g></svg>

<svg xmlns="http://www.w3.org/2000/svg" width="461" height="846" viewBox="0 0 461 846"><rect width="304" height="179.273" x="82" y="660.14" fill="#3D176E" rx="2.5" ry="2.5" style="stroke:#000d19;stroke-width:.5"/><circle cx="97" cy="680.034" r="11" fill="#ADD1B2" style="stroke:#181818;stroke-width:1"/><path d="M99.969 685.675q-.578.297-1.219.438-.64.156-1.344.156-2.5 0-3.828-1.64-1.312-1.657-1.312-4.782t1.312-4.781q1.328-1.657 3.828-1.657.703 0 1.344.157.656.156 1.219.453v2.719q-.625-.579-1.219-.844-.594-.281-1.219-.281-1.344 0-2.031 1.078-.687 1.062-.687 3.156t.687 3.172q.688 1.062 2.031 1.062.625 0 1.219-.265.594-.282 1.219-.86z"/><text x="116" y="685.92" fill="#D9B8FF" font-family="Helvetica" font-size="17" textLength="262">azure_storage_account_deleted</text><path d="M83 699.929h302" style="stroke:#000d19;stroke-width:.5"/><text x="93" y="721.924" fill="#D9B8FF" font-family="sans-serif" font-size="14" font-weight="bold" textLength="106">creation_time</text><text x="199" y="721.924" fill="#D9B8FF" font-family="sans-serif" font-size="14" textLength="70">: datetime</text><text x="93" y="748.221" fill="#D9B8FF" font-family="sans-serif" font-size="14" font-weight="bold" textLength="105">deletion_time</text><text x="198" y="748.221" fill="#D9B8FF" font-family="sans-serif" font-size="14" textLength="70">: datetime</text><text x="93" y="774.518" fill="#D9B8FF" font-family="sans-serif" font-size="14" font-weight="bold" textLength="145">restore_reference</text><text x="238" y="774.518" fill="#D9B8FF" font-family="sans-serif" font-size="14" textLength="48">: string</text><text x="93" y="800.815" fill="#D9B8FF" font-family="sans-serif" font-size="14" font-weight="bold" textLength="231">storage_account_resource_id</text><text x="324" y="800.815" fill="#D9B8FF" font-family="sans-serif" font-size="14" textLength="48">: string</text><text x="93" y="827.112" fill="#D9B8FF" font-family="sans-serif" font-size="14" font-weight="bold" textLength="35">type</text><text x="128" y="827.112" fill="#D9B8FF" font-family="sans-serif" font-size="14" textLength="48">: string</text><rect width="214" height="100.383" x="7" y="438.75" fill="#3D176E" rx="2.5" ry="2.5" style="stroke:#000d19;stroke-width:.5"/><circle cx="28.3" cy="458.644" r="11" fill="#ADD1B2" style="stroke:#181818;stroke-width:1"/><path d="M31.269 464.285q-.578.297-1.219.438-.64.156-1.344.156-2.5 0-3.828-1.64-1.312-1.657-1.312-4.782t1.312-4.781q1.328-1.656 3.828-1.656.703 0 1.344.156.656.156 1.219.453v2.719q-.625-.579-1.219-.844-.594-.281-1.219-.281-1.343 0-2.031 1.078-.687 1.062-.687 3.156t.687 3.172q.688 1.062 2.031 1.062.625 0 1.219-.265.594-.281 1.219-.86z"/><text x="48.7" y="464.53" fill="#D9B8FF" font-family="Helvetica" font-size="17" textLength="158">microsoft_resource</text><path d="M8 478.539h212" style="stroke:#000d19;stroke-width:.5"/><text x="18" y="500.534" fill="#D9B8FF" font-family="sans-serif" font-size="14" font-weight="bold" textLength="35">etag</text><text x="53" y="500.534" fill="#D9B8FF" font-family="sans-serif" font-size="14" textLength="48">: string</text><text x="18" y="526.831" fill="#D9B8FF" font-family="sans-serif" font-size="14" font-weight="bold" textLength="144">provisioning_state</text><text x="162" y="526.831" fill="#D9B8FF" font-family="sans-serif" font-size="14" textLength="48">: string</text><rect width="198" height="39.789" x="256" y="469.05" fill="#3D176E" rx="2.5" ry="2.5" style="stroke:#000d19;stroke-width:.5"/><circle cx="271" cy="488.945" r="11" fill="#ADD1B2" style="stroke:#181818;stroke-width:1"/><path d="M273.969 494.585q-.578.297-1.219.438-.64.156-1.344.156-2.5 0-3.828-1.64-1.312-1.657-1.312-4.782t1.312-4.781q1.328-1.656 3.828-1.656.703 0 1.344.156.656.156 1.219.453v2.719q-.625-.579-1.219-.844-.594-.281-1.219-.281-1.344 0-2.031 1.078-.687 1.062-.687 3.156t.687 3.172q.688 1.062 2.031 1.062.625 0 1.219-.265.594-.281 1.219-.86z"/><text x="290" y="494.83" fill="#D9B8FF" font-family="Helvetica" font-size="17" textLength="156">phantom_resource</text><rect width="227" height="310.758" x="120.5" y="7" fill="#3D176E" rx="2.5" ry="2.5" style="stroke:#000d19;stroke-width:.5"/><circle cx="189.25" cy="26.895" r="11" fill="#ADD1B2" style="stroke:#181818;stroke-width:1"/><path d="M192.219 32.535q-.578.297-1.219.438-.64.156-1.344.156-2.5 0-3.828-1.64-1.312-1.657-1.312-4.782t1.312-4.781q1.328-1.656 3.828-1.656.703 0 1.344.156.656.156 1.219.453v2.719q-.625-.578-1.219-.844-.594-.281-1.219-.281-1.344 0-2.031 1.078-.687 1.062-.687 3.156t.687 3.172q.688 1.062 2.031 1.062.625 0 1.219-.265.594-.281 1.219-.86z"/><text x="214.75" y="32.78" fill="#D9B8FF" font-family="Helvetica" font-size="17" textLength="71">resource</text><path d="M121.5 46.789h225" style="stroke:#000d19;stroke-width:.5"/><text x="131.5" y="68.784" fill="#D9B8FF" font-family="sans-serif" font-size="14" font-weight="bold" textLength="29">age</text><text x="160.5" y="68.784" fill="#D9B8FF" font-family="sans-serif" font-size="14" textLength="66">: duration</text><text x="131.5" y="95.081" fill="#D9B8FF" font-family="sans-serif" font-size="14" font-weight="bold" textLength="43">atime</text><text x="174.5" y="95.081" fill="#D9B8FF" font-family="sans-serif" font-size="14" textLength="70">: datetime</text><text x="131.5" y="121.378" fill="#D9B8FF" font-family="sans-serif" font-size="14" font-weight="bold" textLength="43">ctime</text><text x="174.5" y="121.378" fill="#D9B8FF" font-family="sans-serif" font-size="14" textLength="70">: datetime</text><text x="131.5" y="147.675" fill="#D9B8FF" font-family="sans-serif" font-size="14" font-weight="bold" textLength="14">id</text><text x="145.5" y="147.675" fill="#D9B8FF" font-family="sans-serif" font-size="14" textLength="48">: string</text><text x="131.5" y="173.972" fill="#D9B8FF" font-family="sans-serif" font-size="14" font-weight="bold" textLength="33">kind</text><text x="164.5" y="173.972" fill="#D9B8FF" font-family="sans-serif" font-size="14" textLength="48">: string</text><text x="131.5" y="200.269" fill="#D9B8FF" font-family="sans-serif" font-size="14" font-weight="bold" textLength="90">last_access</text><text x="221.5" y="200.269" fill="#D9B8FF" font-family="sans-serif" font-size="14" textLength="66">: duration</text><text x="131.5" y="226.565" fill="#D9B8FF" font-family="sans-serif" font-size="14" font-weight="bold" textLength="90">last_update</text><text x="221.5" y="226.565" fill="#D9B8FF" font-family="sans-serif" font-size="14" textLength="66">: duration</text><text x="131.5" y="252.862" fill="#D9B8FF" font-family="sans-serif" font-size="14" font-weight="bold" textLength="48">mtime</text><text x="179.5" y="252.862" fill="#D9B8FF" font-family="sans-serif" font-size="14" textLength="70">: datetime</text><text x="131.5" y="279.159" fill="#D9B8FF" font-family="sans-serif" font-size="14" font-weight="bold" textLength="43">name</text><text x="174.5" y="279.159" fill="#D9B8FF" font-family="sans-serif" font-size="14" textLength="48">: string</text><text x="131.5" y="305.456" fill="#D9B8FF" font-family="sans-serif" font-size="14" font-weight="bold" textLength="34">tags</text><text x="165.5" y="305.456" fill="#D9B8FF" font-family="sans-serif" font-size="14" textLength="171">: dictionary[string, string]</text><path fill="none" d="M144.57 555.871c15.75 33.98 29.52 63.679 48.17 103.909M137 539.54l2.126 18.854 10.887-5.046z" style="stroke:#ffaf37;stroke-width:2"/><g fill="none"><path d="M338.48 525.287c-14.73 31.52-37.48 80.173-62.9 134.543" style="stroke:#ffaf37;stroke-width:2"/><path d="m346.1 508.98-13.056 13.767 10.871 5.08z" style="stroke:#ffaf37;stroke-width:2"/></g><path fill="none" d="M170.567 334.943c-16.12 43.59-26.257 71.037-38.257 103.477m44.5-120.36-11.87 14.801 11.254 4.163zm121.139 16.866c22.28 59.75 38.781 104.024 49.971 134.034m-56.26-150.9.667 18.962 11.244-4.193z" style="stroke:#ffaf37;stroke-width:2"/></svg>
